X:1
T:Title
%%score { ( 1 3 ) | ( 2 4 ) }
L:1/8
M:4/4
K:Ab
V:1 treble nm="Grand Piano"
V:3 treble 
V:2 bass 
V:4 bass 
V:1
 z4 z2[Q:1/4=100] [CE][CE] | [CA]2 [CA][CA] [Ec]2 [EB][EA] | [EG]2 [DF]2 [FA]2 [EG][DF] | %3
 [CE]2 [CE]2 [EA][EA][DG][CA] | c2 B4 EE | [CA][CA] [CA]>[CA] [Ec]2 [EB][A,EA] | %6
 [A,EG][A,DF] [A,FA]>[A,DF] [CE]2 [CEA][CEA] | GABc d2 G>G |[M:3/4] [DEB]2 [CEA]4 | %9
[M:5/16] [Ec]3/2[EA] |[M:4/4] z4 [CA]4 | B2 B2 z4 | d2 cB c2 [EA]2 | [Ec]2 [EB]4 [EA][EB] | %14
 [Ec][CA] [DA]>[DF] [CE]2 [EA]B |[M:9/8] c[EA][FB]- [FB]/[Fc]/ [Fd]2- [Fd][Fc][FB] | %16
[M:4/4] AGAB c3 B |[M:3/4] [DEB]2 [CEA]4 |] %18
V:2
 z4 z2 [A,,A,][A,,A,] | [A,,E,]2 [A,,E,][A,,E,] [A,,A,]2 [C,A,][C,A,] | %2
 [D,A,]2 [D,A,]2 [D,A,]2 [D,A,][D,A,] | [A,,A,]2 [A,,A,]2 [C,A,][C,A,][B,,E,][A,,E,] | %4
 [E,A,E]2 [E,G,E]4 [E,G,][E,G,D] | [A,,A,][A,,A,] [A,,A,]>[A,,A,] [A,,A,]2 [B,,G,]C, | %6
 D,D, D,>F, A,2 A,,A,, | [E,B,D][E,A,C][E,G,E][E,A,E] [E,B,E]2 [E,DE]>[E,DE] |[M:3/4] A,,2 A,,4 | %9
[M:5/16] [A,,A,]3/2[C,A,] |[M:4/4] [D,A,D]<[D,A,D] [D,A,D]>[D,A,D] [A,,A,]2 A,,A,, | E2 E2 z4 | %12
 [E,B,E]2 [E,A,E][E,G,E] [A,E]2 [C,A,]2 | [E,A,]2 [E,G,]4 [C,A,]2 | %14
 [A,,A,][A,,E,] [D,F,]>[D,A,] [A,,A,]2 [C,A,][E,G,E] | %15
[M:9/8] [A,E][C,A,][D,F,]- [D,F,]/[C,A,]/ [B,,B,]2- [B,,B,][C,A,][D,B,] | %16
[M:4/4] [E,CE][E,B,D][E,A,C][E,G,E] [E,A,E]3 [E,DE] |[M:3/4] A,,2 A,,4 |] %18
V:3
 x8 | x8 | x8 | x8 | x8 | x8 | x8 | x8 |[M:3/4] x6 |[M:5/16] x5/2 |[M:4/4] F<F F>F z2 A,A, | %11
 z/ G,3/2 z z/ G,/ c3 c | x8 | x8 | x8 |[M:9/8] x9 |[M:4/4] x8 |[M:3/4] x6 |] %18
V:4
 x8 | x8 | x8 | x8 | x8 | x8 | x8 | x8 |[M:3/4] x6 |[M:5/16] x5/2 |[M:4/4] x8 | %11
 [E,G,]<E, [E,G,]>E, [A,E]3 [A,E] | x8 | x8 | x8 |[M:9/8] x9 |[M:4/4] x8 |[M:3/4] x6 |] %18

